X: 39437
T: Tarantella
R: jig
M: 6/8
K: Aminor
|:a2 a|e2 e a2 a|e2 e ede|f2 f faf|e3 efe|
d2 d ded|c2 c cdc|B2 B dcB|A3:|
|:EAB|cBc dcB|c2 c ABc|B2 B dcB|c2 A EAB|
cBc dcB|c2 c ABc|B2 B dcB|A3:|
|:a2 a|e2 e a2 a|e2 e ede|f2 f faf|e3 efe|
d2 d ded|c2 c cdc|B2 B dcB|A3:|
K: CMaj
|:GAB|cGc ece|g2 g gag|f2 f fgf|e2 c GAB|
cGc ece|g2 g gag|bag fed|c3:|

